; generated by Slic3r 1.1.7 on 2018-05-09 at 09:18:54

; perimeters extrusion width = 0.40mm
; infill extrusion width = 0.42mm
; solid infill extrusion width = 0.42mm
; top infill extrusion width = 0.42mm

G21 ; set units to millimeters
M107
M190 S56 ; wait for bed temperature to be reached
M104 S220 ; set temperature
G28 ; home all axes
G1 Z5 F5000 ; lift nozzle

M109 S220 ; wait for temperature to be reached
G90 ; use absolute coordinates
G92 E0
M82 ; use absolute distances for extrusion
G1 F1800.000 E-1.00000
G92 E0
G1 Z0.400 F6600.000
G1 X109.827 Y123.220 F6600.000
G1 E1.00000 F1800.000
G1 X111.583 Y121.720 E1.27422 F1080.000
G1 X113.743 Y120.905 E1.54845
G1 X115.000 Y120.786 E1.69842
G1 X185.000 Y120.786 E10.01198
G1 X187.275 Y121.183 E10.28620
G1 X189.280 Y122.327 E10.56043 F1080.000
G1 X190.780 Y124.083 E10.83465
G1 X191.595 Y126.243 E11.10888
G1 X191.714 Y127.500 E11.25884
G1 X191.714 Y202.500 E20.16623
G1 X191.317 Y204.775 E20.44046
G1 X190.173 Y206.780 E20.71468
G1 X188.417 Y208.280 E20.98891
G1 X186.257 Y209.095 E21.26313
G1 X185.000 Y209.214 E21.41310
G1 X115.000 Y209.214 E29.72666
G1 X112.725 Y208.817 E30.00089
G1 X110.720 Y207.673 E30.27511
G1 X109.220 Y205.917 E30.54934
G1 X108.405 Y203.757 E30.82356
G1 X108.286 Y202.500 E30.97353
G1 X108.286 Y127.500 E39.88091
G1 X108.683 Y125.225 E40.15514
G1 X109.797 Y123.272 E40.42224
G1 F1800.000 E39.42224
G92 E0
G1 X114.643 Y127.352 F6600.000
G1 E1.00000 F1800.000
G1 X114.852 Y127.143 E1.03513 F1080.000
G1 X185.148 Y127.143 E9.38383
G1 X185.357 Y127.352 E9.41896
G1 X185.357 Y202.648 E18.36148 F1080.000
G1 X185.148 Y202.857 E18.39661
G1 X114.852 Y202.857 E26.74531
G1 X114.643 Y202.648 E26.78044
G1 X114.643 Y127.412 E35.71583
G1 F1800.000 E34.71583
G92 E0
G1 X184.600 Y202.100 F6600.000
G1 E1.00000 F1800.000
G1 X115.400 Y202.100 E9.21855 F126.000
G1 X115.400 Y127.900 E18.03093
G1 X184.600 Y127.900 E26.24948
G1 X184.600 Y202.040 E35.05473
G1 X184.254 Y201.900 F6600.000
G1 F1800.000 E34.05473
G92 E0
G1 X116.570 Y131.330 F6600.000
G1 E1.00000 F1800.000
G1 X116.114 Y131.236 E1.05525 F180.000
G1 X116.114 Y128.614 E1.36661
G1 X118.736 Y128.614 E1.67796
G1 X118.830 Y129.070 E1.73320
G1 X118.461 Y129.229 E1.78091
G1 X118.063 Y129.448 E1.83491
G1 X117.696 Y129.715 E1.88878
G1 X117.525 Y129.865 E1.91578
G1 X117.215 Y130.196 E1.96967
G1 X116.948 Y130.563 E2.02356
G1 X116.729 Y130.961 E2.07753
G1 X116.594 Y131.275 E2.11812
G1 X116.570 Y133.670 F6600.000
G1 X116.832 Y134.241 E2.19281 F180.000
G1 X117.076 Y134.625 E2.24673
G1 X117.365 Y134.975 E2.30066
G1 X117.696 Y135.285 E2.35456
G1 X118.063 Y135.552 E2.40845
G1 X118.461 Y135.771 E2.46243
G1 X118.883 Y135.938 E2.51627
G1 X119.323 Y136.051 E2.57020
G1 X119.773 Y136.108 E2.62412
G1 X120.227 Y136.108 E2.67802
G1 X120.677 Y136.051 E2.73194
G1 X121.117 Y135.938 E2.78587
G1 X121.539 Y135.771 E2.83973
G1 X121.937 Y135.552 E2.89371
G1 X122.304 Y135.285 E2.94759
G1 X122.635 Y134.975 E3.00147
G1 X122.924 Y134.625 E3.05541
G1 X123.168 Y134.242 E3.10931
G1 X123.361 Y133.831 E3.16325
G1 X123.501 Y133.399 E3.21714
G1 X123.586 Y132.953 E3.27104
G1 X123.608 Y132.727 E3.29803
G1 X123.608 Y132.273 E3.35194
G1 X123.551 Y131.823 E3.40585
G1 X123.438 Y131.383 E3.45979
G1 X123.271 Y130.961 E3.51363
G1 X123.052 Y130.563 E3.56760
G1 X122.785 Y130.196 E3.62149
G1 X122.475 Y129.865 E3.67540
G1 X122.125 Y129.576 E3.72933
G1 X121.741 Y129.332 E3.78325
G1 X121.170 Y129.070 E3.85793
G1 X121.264 Y128.614 E3.91318
G1 X178.736 Y128.614 E10.73879
G1 X178.830 Y129.070 E10.79404
G1 X178.259 Y129.332 E10.86872
G1 X177.875 Y129.576 E10.92264
G1 X177.525 Y129.865 E10.97658
G1 X177.215 Y130.196 E11.03048
G1 X176.948 Y130.563 E11.08436
G1 X176.729 Y130.961 E11.13833
G1 X176.562 Y131.383 E11.19218
G1 X176.449 Y131.823 E11.24613
G1 X176.392 Y132.273 E11.30003
G1 X176.392 Y132.727 E11.35394
G1 X176.414 Y132.953 E11.38093
G1 X176.499 Y133.399 E11.43485
G1 X176.639 Y133.830 E11.48870
G1 X176.832 Y134.241 E11.54265
G1 X177.076 Y134.625 E11.59656
G1 X177.365 Y134.975 E11.65049
G1 X177.696 Y135.285 E11.70439
G1 X178.063 Y135.552 E11.75828
G1 X178.461 Y135.771 E11.81226
G1 X178.883 Y135.938 E11.86610
G1 X179.323 Y136.051 E11.92004
G1 X179.773 Y136.108 E11.97395
G1 X180.227 Y136.108 E12.02786
G1 X180.677 Y136.051 E12.08178
G1 X181.117 Y135.938 E12.13570
G1 X181.539 Y135.771 E12.18957
G1 X181.937 Y135.552 E12.24354
G1 X182.304 Y135.285 E12.29742
G1 X182.635 Y134.975 E12.35131
G1 X182.924 Y134.625 E12.40526
G1 X183.168 Y134.241 E12.45915
G1 X183.430 Y133.670 E12.53385
G1 X183.886 Y133.764 E12.58910
G1 X183.886 Y196.236 E20.00853
G1 X183.430 Y196.330 E20.06378
G1 X183.168 Y195.759 E20.13848
G1 X182.924 Y195.375 E20.19238
G1 X182.635 Y195.025 E20.24632
G1 X182.304 Y194.715 E20.30022
G1 X181.937 Y194.448 E20.35410
G1 X181.539 Y194.229 E20.40807
G1 X181.117 Y194.062 E20.46192
G1 X180.677 Y193.949 E20.51587
G1 X180.227 Y193.892 E20.56977
G1 X179.773 Y193.892 E20.62368
G1 X179.547 Y193.914 E20.65067
G1 X179.101 Y193.999 E20.70458
G1 X178.670 Y194.139 E20.75846
G1 X178.259 Y194.332 E20.81240
G1 X177.875 Y194.576 E20.86629
G1 X177.525 Y194.865 E20.92024
G1 X177.215 Y195.196 E20.97414
G1 X176.948 Y195.563 E21.02802
G1 X176.729 Y195.961 E21.08199
G1 X176.562 Y196.383 E21.13584
G1 X176.449 Y196.823 E21.18979
G1 X176.392 Y197.273 E21.24369
G1 X176.392 Y197.727 E21.29760
G1 X176.449 Y198.177 E21.35151
G1 X176.562 Y198.617 E21.40545
G1 X176.729 Y199.039 E21.45931
G1 X176.948 Y199.437 E21.51327
G1 X177.215 Y199.804 E21.56716
G1 X177.525 Y200.135 E21.62106
G1 X177.875 Y200.424 E21.67500
G1 X178.259 Y200.668 E21.72890
G1 X178.830 Y200.930 E21.80359
G1 X178.736 Y201.386 E21.85884
G1 X121.264 Y201.386 E28.68445
G1 X121.170 Y200.930 E28.73971
G1 X121.741 Y200.668 E28.81440
G1 X122.125 Y200.424 E28.86830
G1 X122.475 Y200.135 E28.92224
G1 X122.785 Y199.804 E28.97614
G1 X123.052 Y199.437 E29.03002
G1 X123.271 Y199.039 E29.08401
G1 X123.438 Y198.617 E29.13784
G1 X123.551 Y198.177 E29.19178
G1 X123.608 Y197.727 E29.24570
G1 X123.608 Y197.273 E29.29960
G1 X123.551 Y196.823 E29.35351
G1 X123.438 Y196.383 E29.40745
G1 X123.271 Y195.961 E29.46129
G1 X123.052 Y195.563 E29.51528
G1 X122.785 Y195.196 E29.56916
G1 X122.475 Y194.865 E29.62306
G1 X122.125 Y194.576 E29.67699
G1 X121.741 Y194.332 E29.73090
G1 X121.330 Y194.139 E29.78485
G1 X120.899 Y193.999 E29.83870
G1 X120.453 Y193.914 E29.89262
G1 X120.227 Y193.892 E29.91961
G1 X119.773 Y193.892 E29.97352
G1 X119.323 Y193.949 E30.02743
G1 X118.883 Y194.062 E30.08137
G1 X118.461 Y194.229 E30.13521
G1 X118.063 Y194.448 E30.18919
G1 X117.696 Y194.715 E30.24308
G1 X117.365 Y195.025 E30.29697
G1 X117.076 Y195.375 E30.35091
G1 X116.832 Y195.759 E30.40482
G1 X116.570 Y196.330 E30.47951
G1 X116.114 Y196.236 E30.53476
G1 X116.114 Y133.764 E37.95420
G1 X116.511 Y133.682 E38.00233
G1 X116.828 Y135.516 F6600.000
G1 X117.455 Y136.002 E38.09656 F180.000
G1 X117.680 Y136.155 E38.12883
G1 X117.914 Y136.294 E38.16113
G1 X118.406 Y136.525 E38.22574
G1 X118.923 Y136.693 E38.29027
G1 X119.189 Y136.753 E38.32259
G1 X119.728 Y136.821 E38.38716
G1 X120.000 Y136.829 E38.41945
G1 X120.272 Y136.821 E38.45175
G1 X120.811 Y136.753 E38.51633
G1 X121.077 Y136.693 E38.54866
G1 X121.593 Y136.525 E38.61314
G1 X122.086 Y136.294 E38.67775
G1 X122.320 Y136.155 E38.71013
G1 X122.760 Y135.836 E38.77464
G1 X122.964 Y135.656 E38.80696
G1 X123.336 Y135.259 E38.87152
G1 X123.502 Y135.045 E38.90381
G1 X123.794 Y134.586 E38.96835
G1 X123.917 Y134.343 E39.00075
G1 X124.025 Y134.094 E39.03299
G1 X124.193 Y133.577 E39.09753
G1 X124.295 Y133.043 E39.16208
G1 X124.329 Y132.500 E39.22668
G1 X124.321 Y132.228 E39.25897
G1 X124.253 Y131.689 E39.32354
G1 X124.193 Y131.423 E39.35587
G1 X124.025 Y130.906 E39.42040
G1 X123.794 Y130.414 E39.48501
G1 X123.655 Y130.180 E39.51731
G1 X123.502 Y129.955 E39.54958
G1 X123.016 Y129.328 E39.64381
G1 X176.984 Y129.328 E46.05324
G1 X176.498 Y129.955 E46.14748
G1 X176.345 Y130.180 E46.17972
G1 X176.206 Y130.414 E46.21206
G1 X175.975 Y130.907 E46.27669
G1 X175.807 Y131.423 E46.34116
G1 X175.747 Y131.689 E46.37352
G1 X175.679 Y132.228 E46.43807
G1 X175.671 Y132.500 E46.47037
G1 X175.679 Y132.772 E46.50267
G1 X175.747 Y133.311 E46.56723
G1 X175.807 Y133.577 E46.59958
G1 X175.975 Y134.093 E46.66405
G1 X176.206 Y134.586 E46.72868
G1 X176.345 Y134.820 E46.76102
G1 X176.664 Y135.260 E46.82554
G1 X176.844 Y135.464 E46.85788
G1 X177.240 Y135.836 E46.92243
G1 X177.455 Y136.002 E46.95473
G1 X177.914 Y136.294 E47.01928
G1 X178.157 Y136.417 E47.05167
G1 X178.407 Y136.525 E47.08391
G1 X178.923 Y136.693 E47.14844
G1 X179.457 Y136.795 E47.21299
G1 X180.000 Y136.829 E47.27759
G1 X180.272 Y136.821 E47.30990
G1 X180.811 Y136.753 E47.37447
G1 X181.077 Y136.693 E47.40679
G1 X181.593 Y136.525 E47.47128
G1 X182.086 Y136.294 E47.53590
G1 X182.320 Y136.155 E47.56826
G1 X182.544 Y136.003 E47.60048
G1 X183.172 Y135.516 E47.69473
G1 X183.172 Y194.484 E54.69799
G1 X182.545 Y193.998 E54.79222
G1 X182.320 Y193.845 E54.82448
G1 X182.086 Y193.706 E54.85681
G1 X181.593 Y193.475 E54.92144
G1 X181.077 Y193.307 E54.98592
G1 X180.811 Y193.247 E55.01827
G1 X180.272 Y193.179 E55.08282
G1 X180.000 Y193.171 E55.11513
G1 X179.728 Y193.179 E55.14742
G1 X179.189 Y193.247 E55.21198
G1 X178.923 Y193.307 E55.24431
G1 X178.407 Y193.475 E55.30882
G1 X177.914 Y193.706 E55.37344
G1 X177.680 Y193.845 E55.40578
G1 X177.240 Y194.164 E55.47030
G1 X177.036 Y194.344 E55.50263
G1 X176.664 Y194.741 E55.56718
G1 X176.498 Y194.955 E55.59948
G1 X176.206 Y195.414 E55.66403
G1 X176.083 Y195.657 E55.69639
G1 X175.975 Y195.907 E55.72869
G1 X175.807 Y196.423 E55.79318
G1 X175.705 Y196.957 E55.85775
G1 X175.671 Y197.500 E55.92235
G1 X175.679 Y197.772 E55.95464
G1 X175.747 Y198.311 E56.01920
G1 X175.807 Y198.577 E56.05155
G1 X175.975 Y199.093 E56.11603
G1 X176.206 Y199.586 E56.18066
G1 X176.345 Y199.820 E56.21299
G1 X176.498 Y200.045 E56.24525
G1 X176.984 Y200.672 E56.33948
G1 X123.016 Y200.672 E62.74890
G1 X123.502 Y200.045 E62.84313
G1 X123.655 Y199.820 E62.87539
G1 X123.794 Y199.586 E62.90771
G1 X124.025 Y199.093 E62.97232
G1 X124.193 Y198.577 E63.03684
G1 X124.253 Y198.311 E63.06917
G1 X124.321 Y197.772 E63.13374
G1 X124.329 Y197.500 E63.16603
G1 X124.295 Y196.957 E63.23064
G1 X124.193 Y196.423 E63.29518
G1 X124.025 Y195.907 E63.35971
G1 X123.917 Y195.657 E63.39196
G1 X123.794 Y195.414 E63.42435
G1 X123.502 Y194.955 E63.48890
G1 X123.336 Y194.740 E63.52120
G1 X122.964 Y194.344 E63.58575
G1 X122.760 Y194.164 E63.61809
G1 X122.320 Y193.845 E63.68260
G1 X122.086 Y193.706 E63.71495
G1 X121.593 Y193.475 E63.77958
G1 X121.077 Y193.307 E63.84405
G1 X120.811 Y193.247 E63.87640
G1 X120.272 Y193.179 E63.94096
G1 X120.000 Y193.171 E63.97327
G1 X119.728 Y193.179 E64.00555
G1 X119.189 Y193.247 E64.07012
G1 X118.923 Y193.307 E64.10245
G1 X118.407 Y193.475 E64.16696
G1 X117.914 Y193.706 E64.23158
G1 X117.680 Y193.845 E64.26390
G1 X117.456 Y193.997 E64.29614
G1 X116.828 Y194.484 E64.39039
G1 X116.828 Y135.576 E71.38653
G1 X116.000 Y139.500 F6600.000
G1 X135.000 Y128.500 F6600.000
G1 X158.914 Y131.201 F6600.000
G1 X175.000 Y128.500 F6600.000
G1 X181.170 Y129.070 F6600.000
G1 X181.264 Y128.614 E71.44178 F180.000
G1 X183.886 Y128.614 E71.75314
G1 X183.886 Y131.236 E72.06449
G1 X183.430 Y131.330 E72.11974
G1 X183.271 Y130.961 E72.16745
G1 X183.052 Y130.563 E72.22143
G1 X182.785 Y130.196 E72.27532
G1 X182.635 Y130.025 E72.30231
G1 X182.304 Y129.715 E72.35620
G1 X181.937 Y129.448 E72.41010
G1 X181.539 Y129.229 E72.46406
G1 X181.225 Y129.094 E72.50466
G1 X184.000 Y129.500 F6600.000
G1 X184.000 Y201.500 F6600.000
G1 X183.430 Y198.670 F6600.000
G1 X183.886 Y198.764 E72.55991 F180.000
G1 X183.886 Y201.386 E72.87126
G1 X181.264 Y201.386 E73.18261
G1 X181.170 Y200.930 E73.23786
G1 X181.539 Y200.771 E73.28558
G1 X181.937 Y200.552 E73.33955
G1 X182.304 Y200.285 E73.39343
G1 X182.475 Y200.135 E73.42044
G1 X182.785 Y199.804 E73.47433
G1 X183.052 Y199.437 E73.52821
G1 X183.271 Y199.039 E73.58219
G1 X183.406 Y198.725 E73.62278
G1 X184.000 Y201.500 F6600.000
G1 X184.000 Y189.500 F6600.000
G1 X124.000 Y201.500 F6600.000
G1 X118.830 Y200.930 F6600.000
G1 X118.736 Y201.386 E73.67803 F180.000
G1 X116.114 Y201.386 E73.98938
G1 X116.114 Y198.764 E74.30074
G1 X116.570 Y198.670 E74.35599
G1 X116.729 Y199.039 E74.40371
G1 X116.948 Y199.437 E74.45767
G1 X117.215 Y199.804 E74.51157
G1 X117.365 Y199.975 E74.53856
G1 X117.696 Y200.285 E74.59245
G1 X118.063 Y200.552 E74.64634
G1 X118.461 Y200.771 E74.70032
G1 X118.775 Y200.906 E74.74091
G1 X177.105 Y197.682 F6600.000
G1 X177.123 Y197.136 E74.80574 F126.000
G1 X177.191 Y196.779 E74.84900
G1 X177.303 Y196.432 E74.89224
G1 X177.551 Y195.946 E74.95709
G1 X177.886 Y195.515 E75.02192
G1 X178.151 Y195.265 E75.06516
G1 X178.446 Y195.051 E75.10841
G1 X178.932 Y194.803 E75.17326
G1 X179.457 Y194.651 E75.23808
G1 X179.818 Y194.605 E75.28133
G1 X180.114 Y194.603 E75.31646
G1 X180.543 Y194.651 E75.36782 F126.000
G1 X180.896 Y194.742 E75.41108
G1 X181.397 Y194.959 E75.47591
G1 X181.705 Y195.154 E75.51916
G1 X181.985 Y195.386 E75.56243
G1 X182.235 Y195.651 E75.60567
G1 X182.541 Y196.103 E75.67050
G1 X182.697 Y196.432 E75.71377
G1 X182.809 Y196.779 E75.75701
G1 X182.895 Y197.318 E75.82184
G1 X182.895 Y197.682 E75.86510
G1 X182.849 Y198.043 E75.90836
G1 X182.697 Y198.568 E75.97318
G1 X182.541 Y198.897 E76.01644
G1 X182.346 Y199.205 E76.05969
G1 X182.114 Y199.485 E76.10296
G1 X181.849 Y199.735 E76.14621
G1 X181.397 Y200.041 E76.21104
G1 X181.068 Y200.197 E76.25430
G1 X180.721 Y200.309 E76.29754
G1 X180.182 Y200.395 E76.36238
G1 X179.818 Y200.395 E76.40564
G1 X179.457 Y200.349 E76.44889
G1 X179.104 Y200.258 E76.49215
G1 X178.765 Y200.124 E76.53538
G1 X178.446 Y199.949 E76.57867
G1 X178.151 Y199.735 E76.62191
G1 X177.765 Y199.349 E76.68674
G1 X177.459 Y198.897 E76.75157
G1 X177.303 Y198.568 E76.79484
G1 X177.191 Y198.221 E76.83808
G1 X177.111 Y197.742 E76.89580
G1 F1800.000 E75.89580
G92 E0
G1 X180.232 Y194.221 F6600.000
G1 X174.609 Y186.546 F6600.000
G1 E1.00000 F1800.000
G1 X174.401 Y186.584 E1.02522 F126.000
G1 X174.150 Y186.600 E1.05502
G1 X173.775 Y186.565 E1.09977
G1 X173.532 Y186.502 E1.12958
G1 X173.298 Y186.410 E1.15941
G1 X172.974 Y186.218 E1.20413
G1 X172.681 Y185.957 E1.25072
G1 X172.532 Y185.775 E1.27869
G1 X172.397 Y185.564 E1.30848
G1 X172.243 Y185.203 E1.35508
G1 X172.185 Y184.975 E1.38304
G1 X172.154 Y184.725 E1.41287
G1 X172.166 Y184.350 E1.45753
G1 X172.248 Y183.982 E1.50229
G1 X172.397 Y183.636 E1.54699
G1 X172.532 Y183.425 E1.57679
G1 X172.692 Y183.231 E1.60668
G1 X172.974 Y182.982 E1.65135
G1 X173.186 Y182.847 E1.68121
G1 X173.414 Y182.740 E1.71102
G1 X173.775 Y182.635 E1.75572
G1 X174.024 Y182.604 E1.78558
G1 X174.250 Y182.603 E1.81234
G1 X174.525 Y182.635 E1.84524 F126.000
G1 X174.886 Y182.740 E1.88994
G1 X175.222 Y182.911 E1.93464
G1 X175.519 Y183.142 E1.97936
G1 X175.768 Y183.424 E2.02406
G1 X175.903 Y183.636 E2.05391
G1 X176.052 Y183.982 E2.09862
G1 X176.134 Y184.349 E2.14335
G1 X176.150 Y184.600 E2.17316
G1 X176.115 Y184.975 E2.21788
G1 X176.010 Y185.336 E2.26259
G1 X175.839 Y185.672 E2.30729
G1 X175.608 Y185.969 E2.35202
G1 X175.326 Y186.218 E2.39671
G1 X175.001 Y186.410 E2.44144
G1 X174.668 Y186.531 E2.48365
G1 F1800.000 E1.48365
G92 E0
G1 X174.253 Y182.326 F6600.000
G1 X174.766 Y187.243 F6600.000
G1 E1.00000 F1800.000
G1 X174.490 Y187.293 E1.03328 F180.000
G1 X174.150 Y187.315 E1.07368
G1 X173.641 Y187.267 E1.13449
G1 X173.311 Y187.182 E1.17491
G1 X172.994 Y187.056 E1.21539
G1 X172.554 Y186.796 E1.27610
G1 X172.292 Y186.579 E1.31660
G1 X172.146 Y186.429 E1.34139
G1 X171.953 Y186.195 E1.37741
G1 X171.771 Y185.908 E1.41778
G1 X171.568 Y185.439 E1.47842
G1 X171.457 Y184.940 E1.53923
G1 X171.441 Y184.430 E1.59978
G1 X171.483 Y184.092 E1.64028
G1 X171.557 Y183.798 E1.67626
G1 X171.626 Y183.600 E1.70111
G1 X171.771 Y183.292 E1.74159
G1 X172.058 Y182.870 E1.80224
G1 X172.292 Y182.621 E1.84271
G1 X172.554 Y182.404 E1.88319
G1 X172.994 Y182.144 E1.94392
G1 X173.474 Y181.971 E2.00451
G1 X173.811 Y181.907 E2.04520
G1 X174.112 Y181.887 E2.08101
G1 X174.490 Y181.907 E2.12600 F180.000
G1 X174.989 Y182.018 E2.18674
