; generated by Slic3r 1.1.7 on 2018-05-10 at 19:38:35

; perimeters extrusion width = 0.40mm
; infill extrusion width = 0.42mm
; solid infill extrusion width = 0.42mm
; top infill extrusion width = 0.42mm

G21 ; set units to millimeters
M107
M190 S56 ; wait for bed temperature to be reached
M104 S235 ; set temperature
G28 ; home all axes
G1 Z5 F5000 ; lift nozzle

M109 S235 ; wait for temperature to be reached
G90 ; use absolute coordinates
G92 E0
M82 ; use absolute distances for extrusion
G1 F1800.000 E-1.00000
G92 E0
G1 Z0.350 F6600.000
G1 X125.075 Y138.153 F6600.000
G1 E1.00000 F1800.000
G1 X126.810 Y136.642 E1.21283 F1080.000
G1 X128.636 Y135.242 E1.42564
G1 X130.547 Y133.959 E1.63854
G1 X132.535 Y132.799 E1.85137
G1 X134.591 Y131.766 E2.06421
G1 X136.786 Y130.835 E2.28472
G1 X138.878 Y130.096 E2.48992
G1 X141.092 Y129.467 E2.70281
G1 X143.341 Y128.977 E2.91566
G1 X145.615 Y128.630 E3.12849
G1 X147.990 Y128.424 E3.34897
G1 X150.208 Y128.368 E3.55420
G1 X152.508 Y128.453 E3.76706
G1 X154.879 Y128.696 E3.98751 F1080.000
G1 X157.069 Y129.056 E4.19273
G1 X159.312 Y129.570 E4.40559
G1 X161.518 Y130.225 E4.61846
G1 X163.679 Y131.017 E4.83130
G1 X165.786 Y131.943 E5.04416
G1 X167.901 Y133.041 E5.26463
G1 X169.804 Y134.182 E5.46983
G1 X171.700 Y135.486 E5.68269
G1 X173.511 Y136.907 E5.89555
G1 X175.228 Y138.439 E6.10840
G1 X176.847 Y140.075 E6.32128
G1 X178.358 Y141.810 E6.53410
G1 X179.463 Y143.234 E6.70080
G1 X179.759 Y143.637 E6.74699
G1 X181.041 Y145.547 E6.95982
G1 X182.202 Y147.535 E7.17268
G1 X183.235 Y149.591 E7.38554
G1 X183.951 Y151.246 E7.55226
G1 X184.137 Y151.708 E7.59840
G1 X184.904 Y153.878 E7.81126
G1 X185.533 Y156.092 E8.02412
G1 X186.023 Y158.341 E8.23697
G1 X186.304 Y160.121 E8.40367
G1 X186.370 Y160.615 E8.44982
G1 X186.573 Y162.908 E8.66268
G1 X186.632 Y165.208 E8.87553
G1 X186.547 Y167.508 E9.08839
G1 X186.317 Y169.798 E9.30123
G1 X185.944 Y172.069 E9.51408
G1 X185.430 Y174.312 E9.72694
G1 X184.775 Y176.518 E9.93980
G1 X183.983 Y178.679 E10.15264
G1 X183.057 Y180.786 E10.36550
G1 X182.001 Y182.830 E10.57836
G1 X180.818 Y184.804 E10.79119
G1 X179.514 Y186.701 E11.00407
G1 X178.409 Y188.125 E11.17078
G1 X178.093 Y188.511 E11.21691
G1 X176.561 Y190.228 E11.42977
G1 X174.863 Y191.901 E11.65026
G1 X173.190 Y193.358 E11.85544
G1 X171.363 Y194.759 E12.06834
G1 X169.453 Y196.041 E12.28114
G1 X167.465 Y197.202 E12.49403
G1 X165.409 Y198.235 E12.70688
G1 X163.291 Y199.137 E12.91973
G1 X161.122 Y199.904 E13.13259
G1 X158.908 Y200.533 E13.34545
G1 X156.659 Y201.023 E13.55830
G1 X154.385 Y201.370 E13.77114
G1 X152.010 Y201.576 E13.99161
G1 X149.792 Y201.632 E14.19684
G1 X147.492 Y201.547 E14.40970
G1 X145.202 Y201.317 E14.62253
G1 X142.931 Y200.944 E14.83539
G1 X140.688 Y200.430 E15.04823
G1 X138.482 Y199.775 E15.26110
G1 X136.245 Y198.950 E15.48156
G1 X134.214 Y198.057 E15.68680
G1 X132.170 Y197.001 E15.89965
G1 X130.196 Y195.818 E16.11249
G1 X128.234 Y194.463 E16.33299
G1 X126.489 Y193.093 E16.53816
G1 X124.771 Y191.561 E16.75105
G1 X123.153 Y189.925 E16.96391
G1 X121.642 Y188.190 E17.17675
G1 X120.537 Y186.766 E17.34346
G1 X120.241 Y186.363 E17.38964
G1 X118.959 Y184.453 E17.60246
G1 X117.798 Y182.465 E17.81533
G1 X116.765 Y180.409 E18.02818
G1 X115.863 Y178.292 E18.24103
G1 X115.096 Y176.122 E18.45389
G1 X114.467 Y173.908 E18.66674
G1 X114.074 Y172.149 E18.83343
G1 X113.977 Y171.659 E18.87961
G1 X113.630 Y169.385 E19.09244
G1 X113.427 Y167.092 E19.30531
G1 X113.368 Y164.792 E19.51816
G1 X113.424 Y162.990 E19.68487
G1 X113.453 Y162.492 E19.73104
G1 X113.683 Y160.202 E19.94387
G1 X114.056 Y157.931 E20.15673
G1 X114.570 Y155.688 E20.36957
G1 X115.225 Y153.482 E20.58245
G1 X116.017 Y151.321 E20.79528
G1 X116.943 Y149.214 E21.00815
G1 X117.761 Y147.608 E21.17486
G1 X117.999 Y147.170 E21.22102
G1 X119.182 Y145.196 E21.43384
G1 X120.486 Y143.299 E21.64673
G1 X121.907 Y141.489 E21.85956
G1 X123.439 Y139.772 E22.07242
G1 X125.033 Y138.196 E22.27973
G1 F1800.000 E21.27973
G92 E0
G1 X129.253 Y142.893 F6600.000
G1 E1.00000 F1800.000
G1 X130.679 Y141.637 E1.17571 F1080.000
G1 X132.176 Y140.475 E1.35094
G1 X133.759 Y139.399 E1.52803
G1 X135.399 Y138.430 E1.70419
G1 X137.087 Y137.570 E1.87942
G1 X138.844 Y136.809 E2.05651
G1 X140.636 Y136.164 E2.23267
G1 X142.455 Y135.636 E2.40790
G1 X144.324 Y135.218 E2.58498
G1 X146.205 Y134.921 E2.76114
G1 X148.091 Y134.742 E2.93638
G1 X150.092 Y134.685 E3.12153
G1 X151.909 Y134.742 E3.28961 F1080.000
G1 X153.795 Y134.921 E3.46484
G1 X155.686 Y135.220 E3.64192
G1 X157.535 Y135.633 E3.81716
G1 X159.364 Y136.164 E3.99332
G1 X161.156 Y136.809 E4.16948
G1 X162.913 Y137.570 E4.34656
G1 X164.685 Y138.479 E4.53079
G1 X166.249 Y139.405 E4.69887
G1 X167.816 Y140.469 E4.87410
G1 X169.329 Y141.643 E5.05118
G1 X170.758 Y142.903 E5.22734
G1 X172.097 Y144.242 E5.40258
G1 X173.357 Y145.671 E5.57874
G1 X174.531 Y147.184 E5.75582
G1 X175.595 Y148.751 E5.93105
G1 X176.565 Y150.390 E6.10721
G1 X177.434 Y152.096 E6.28429
G1 X178.187 Y153.835 E6.45954
G1 X178.803 Y155.544 E6.62760
G1 X179.364 Y157.455 E6.81184
G1 X179.782 Y159.324 E6.98892
G1 X180.079 Y161.205 E7.16508
G1 X180.258 Y163.091 E7.34031
G1 X180.318 Y165.005 E7.51740
G1 X180.258 Y166.909 E7.69356
G1 X180.079 Y168.795 E7.86879
G1 X179.782 Y170.676 E8.04495
G1 X179.367 Y172.535 E8.22111
G1 X178.832 Y174.373 E8.39819
G1 X178.187 Y176.165 E8.57435
G1 X177.434 Y177.904 E8.74959
G1 X176.565 Y179.610 E8.92667
G1 X175.601 Y181.241 E9.10191
G1 X174.531 Y182.816 E9.27807
G1 X173.363 Y184.321 E9.45422
G1 X172.097 Y185.758 E9.63130
G1 X170.750 Y187.104 E9.80747
G1 X169.329 Y188.357 E9.98270
G1 X167.816 Y189.531 E10.15978
G1 X166.241 Y190.601 E10.33594
G1 X164.610 Y191.565 E10.51118
G1 X162.904 Y192.434 E10.68826
G1 X161.156 Y193.191 E10.86442
G1 X159.373 Y193.832 E11.03966
G1 X157.545 Y194.364 E11.21582
G1 X155.686 Y194.780 E11.39198
G1 X153.795 Y195.079 E11.56906
G1 X151.899 Y195.258 E11.74522
G1 X150.005 Y195.318 E11.92045
G1 X148.091 Y195.258 E12.09754
G1 X146.195 Y195.078 E12.27370
G1 X144.324 Y194.782 E12.44893
G1 X142.455 Y194.364 E12.62601
G1 X140.627 Y193.832 E12.80217
G1 X138.835 Y193.187 E12.97833
G1 X137.096 Y192.434 E13.15357
G1 X135.399 Y191.570 E13.32973
G1 X133.751 Y190.595 E13.50681
G1 X132.106 Y189.471 E13.69105
G1 X130.671 Y188.357 E13.85911
G1 X129.250 Y187.104 E14.03435
G1 X127.896 Y185.750 E14.21143
G1 X126.643 Y184.329 E14.38667
G1 X125.529 Y182.894 E14.55474
G1 X124.405 Y181.249 E14.73897
G1 X123.435 Y179.610 E14.91513
G1 X122.566 Y177.904 E15.09221
G1 X121.809 Y176.156 E15.26837
G1 X121.168 Y174.373 E15.44361
G1 X120.633 Y172.535 E15.62069
G1 X120.218 Y170.676 E15.79685
G1 X119.922 Y168.805 E15.97209
G1 X119.742 Y166.909 E16.14825
G1 X119.682 Y164.995 E16.32533
G1 X119.742 Y163.101 E16.50056
G1 X119.921 Y161.205 E16.67672
G1 X120.220 Y159.314 E16.85380
G1 X120.633 Y157.465 E17.02904
G1 X121.140 Y155.720 E17.19711
G1 X121.809 Y153.844 E17.38134
G1 X122.570 Y152.087 E17.55843
G1 X123.435 Y150.390 E17.73459
G1 X124.399 Y148.759 E17.90982
G1 X125.469 Y147.184 E18.08599
G1 X126.643 Y145.671 E18.26306
G1 X127.896 Y144.250 E18.43830
G1 X129.210 Y142.935 E18.61028
G1 F1800.000 E17.61028
G92 E0
G1 X170.297 Y186.614 F6600.000
G1 E1.00000 F1800.000
G1 X168.899 Y187.846 E1.17228 F126.000
G1 X167.428 Y188.987 E1.34455
G1 X165.887 Y190.034 E1.51683
G1 X164.284 Y190.982 E1.68911
G1 X162.624 Y191.828 E1.86138
G1 X160.915 Y192.568 E2.03367
G1 X159.162 Y193.199 E2.20594
G1 X157.374 Y193.718 E2.37822
G1 X155.556 Y194.125 E2.55050
G1 X153.716 Y194.416 E2.72277
G1 X151.862 Y194.591 E2.89505
G1 X150.000 Y194.650 E3.06733
G1 X148.138 Y194.591 E3.23961
G1 X146.284 Y194.416 E3.41189
G1 X144.444 Y194.125 E3.58417
G1 X142.626 Y193.718 E3.75644
G1 X140.838 Y193.199 E3.92872
G1 X139.085 Y192.568 E4.10100
G1 X137.376 Y191.828 E4.27328
G1 X135.716 Y190.982 E4.44555
G1 X134.113 Y190.034 E4.61783
G1 X132.572 Y188.987 E4.79012
G1 X131.101 Y187.846 E4.96239
G1 X129.703 Y186.614 E5.13466
G1 X128.386 Y185.297 E5.30695
G1 X127.154 Y183.899 E5.47923
G1 X126.013 Y182.428 E5.65150
G1 X124.966 Y180.887 E5.82378
G1 X124.018 Y179.284 E5.99606
G1 X123.172 Y177.624 E6.16833
G1 X122.432 Y175.915 E6.34062
G1 X121.801 Y174.162 E6.51289
G1 X121.282 Y172.374 E6.68517
G1 X120.875 Y170.556 E6.85745
G1 X120.584 Y168.716 E7.02972
G1 X120.409 Y166.862 E7.20200
G1 X120.350 Y165.000 E7.37428
G1 X120.409 Y163.138 E7.54656
G1 X120.584 Y161.284 E7.71884
G1 X120.875 Y159.444 E7.89112
G1 X121.282 Y157.626 E8.06339
G1 X121.801 Y155.838 E8.23567
G1 X122.432 Y154.085 E8.40794
G1 X123.172 Y152.376 E8.58023
G1 X124.018 Y150.716 E8.75250
G1 X124.966 Y149.113 E8.92479
G1 X126.013 Y147.572 E9.09706
G1 X127.154 Y146.101 E9.26934
G1 X128.386 Y144.703 E9.44161
G1 X129.703 Y143.386 E9.61390
G1 X131.101 Y142.154 E9.78617
G1 X132.572 Y141.013 E9.95845
G1 X134.113 Y139.966 E10.13073
G1 X135.716 Y139.018 E10.30301
G1 X137.376 Y138.172 E10.47528
G1 X139.085 Y137.432 E10.64757
G1 X140.838 Y136.801 E10.81984
G1 X142.626 Y136.282 E10.99212
G1 X144.444 Y135.875 E11.16439
G1 X146.284 Y135.584 E11.33667
G1 X148.138 Y135.409 E11.50895
G1 X150.071 Y135.352 E11.68783
G1 X151.862 Y135.409 E11.85349 F126.000
G1 X153.716 Y135.584 E12.02577
G1 X155.556 Y135.875 E12.19805
G1 X157.374 Y136.282 E12.37033
G1 X159.162 Y136.801 E12.54260
G1 X160.915 Y137.432 E12.71488
G1 X162.624 Y138.172 E12.88716
G1 X164.345 Y139.054 E13.06604
G1 X165.887 Y139.966 E13.23171
G1 X167.428 Y141.013 E13.40399
G1 X168.899 Y142.154 E13.57626
G1 X170.297 Y143.386 E13.74854
G1 X171.614 Y144.703 E13.92082
G1 X172.846 Y146.101 E14.09310
G1 X173.943 Y147.516 E14.25876
G1 X175.034 Y149.113 E14.43764
G1 X175.982 Y150.716 E14.60992
G1 X176.828 Y152.376 E14.78219
G1 X177.568 Y154.085 E14.95448
G1 X178.199 Y155.838 E15.12675
G1 X178.718 Y157.626 E15.29903
G1 X179.125 Y159.444 E15.47131
G1 X179.416 Y161.284 E15.64358
G1 X179.591 Y163.138 E15.81586
G1 X179.650 Y165.000 E15.98814
G1 X179.591 Y166.862 E16.16042
G1 X179.416 Y168.716 E16.33270
G1 X179.125 Y170.556 E16.50498
G1 X178.718 Y172.374 E16.67725
G1 X178.199 Y174.162 E16.84953
G1 X177.568 Y175.915 E17.02181
G1 X176.828 Y177.624 E17.19409
G1 X175.982 Y179.284 E17.36636
G1 X175.034 Y180.887 E17.53864
G1 X173.987 Y182.428 E17.71092
G1 X172.846 Y183.899 E17.88320
G1 X171.614 Y185.297 E18.05547
G1 X170.339 Y186.571 E18.22221
G1 F1800.000 E17.22221
G92 E0
G1 X150.438 Y135.511 F6600.000
G1 X169.861 Y186.150 F6600.000
G1 E1.00000 F1800.000
G1 X168.494 Y187.356 E1.16858 F180.000
G1 X167.054 Y188.473 E1.33716
G1 X165.546 Y189.497 E1.50574
G1 X163.978 Y190.425 E1.67433
G1 X162.354 Y191.253 E1.84291
G1 X160.681 Y191.976 E2.01150
G1 X158.966 Y192.594 E2.18008
G1 X157.215 Y193.102 E2.34866
G1 X155.437 Y193.500 E2.51724
G1 X153.636 Y193.785 E2.68582
G1 X151.822 Y193.957 E2.85441
G1 X150.000 Y194.014 E3.02299
G1 X148.178 Y193.957 E3.19157
G1 X146.364 Y193.785 E3.36016
G1 X144.563 Y193.500 E3.52874
G1 X142.785 Y193.102 E3.69732
G1 X141.034 Y192.594 E3.86590
G1 X139.319 Y191.976 E4.03449
G1 X137.646 Y191.253 E4.20307
G1 X136.022 Y190.425 E4.37165
G1 X134.454 Y189.497 E4.54024
G1 X132.946 Y188.473 E4.70883
G1 X131.506 Y187.356 E4.87740
G1 X130.139 Y186.150 E5.04598
G1 X128.850 Y184.861 E5.21457
G1 X127.644 Y183.494 E5.38316
G1 X126.527 Y182.054 E5.55173
G1 X125.503 Y180.546 E5.72032
G1 X124.575 Y178.978 E5.88890
G1 X123.747 Y177.354 E6.05748
G1 X123.024 Y175.681 E6.22607
G1 X122.406 Y173.966 E6.39465
G1 X121.898 Y172.215 E6.56323
G1 X121.500 Y170.437 E6.73181
G1 X121.215 Y168.636 E6.90040
G1 X121.043 Y166.822 E7.06898
G1 X120.986 Y165.000 E7.23757
G1 X121.043 Y163.178 E7.40614
G1 X121.215 Y161.364 E7.57473
G1 X121.500 Y159.563 E7.74331
G1 X121.898 Y157.785 E7.91190
G1 X122.406 Y156.034 E8.08048
G1 X123.024 Y154.319 E8.24906
G1 X123.747 Y152.646 E8.41765
G1 X124.575 Y151.022 E8.58622
G1 X125.503 Y149.454 E8.75482
G1 X126.527 Y147.946 E8.92339
G1 X127.644 Y146.506 E9.09198
G1 X128.850 Y145.139 E9.26056
G1 X130.139 Y143.850 E9.42914
G1 X131.506 Y142.644 E9.59772
G1 X132.946 Y141.527 E9.76631
G1 X134.454 Y140.503 E9.93489
G1 X136.022 Y139.575 E10.10348
G1 X137.646 Y138.747 E10.27206
G1 X139.319 Y138.024 E10.44065
G1 X141.034 Y137.406 E10.60923
G1 X142.785 Y136.898 E10.77780
G1 X144.563 Y136.500 E10.94639
G1 X146.364 Y136.215 E11.11497
G1 X148.230 Y136.042 E11.28831
G1 X150.000 Y135.986 E11.45213 F180.000
G1 X151.822 Y136.043 E11.62071
G1 X153.636 Y136.215 E11.78929
G1 X155.437 Y136.500 E11.95788
G1 X157.215 Y136.898 E12.12646
G1 X158.966 Y137.406 E12.29504
G1 X160.681 Y138.024 E12.46362
G1 X162.353 Y138.747 E12.63221
G1 X163.978 Y139.575 E12.80079
G1 X165.546 Y140.503 E12.96937
G1 X167.054 Y141.527 E13.13796
G1 X168.494 Y142.644 E13.30654
G1 X169.861 Y143.850 E13.47512
G1 X171.150 Y145.139 E13.64371
G1 X172.356 Y146.506 E13.81229
G1 X173.473 Y147.946 E13.98087
G1 X174.497 Y149.454 E14.14945
G1 X175.425 Y151.022 E14.31804
G1 X176.253 Y152.646 E14.48662
G1 X176.976 Y154.319 E14.65521
G1 X177.594 Y156.034 E14.82379
G1 X178.088 Y157.735 E14.98761
G1 X178.500 Y159.563 E15.16094
G1 X178.785 Y161.364 E15.32952
G1 X178.957 Y163.178 E15.49811
G1 X179.014 Y165.000 E15.66669
G1 X178.957 Y166.822 E15.83527
G1 X178.785 Y168.636 E16.00386
G1 X178.500 Y170.437 E16.17244
G1 X178.102 Y172.215 E16.34102
G1 X177.594 Y173.966 E16.50961
G1 X176.976 Y175.681 E16.67819
G1 X176.253 Y177.354 E16.84678
G1 X175.425 Y178.978 E17.01535
G1 X174.497 Y180.546 E17.18394
G1 X173.473 Y182.054 E17.35253
G1 X172.356 Y183.494 E17.52110
G1 X171.150 Y184.861 E17.68968
G1 X169.904 Y186.108 E17.85273
G1 X169.426 Y185.687 F6600.000
G1 X168.089 Y186.866 E18.01761 F180.000
G1 X166.680 Y187.958 E18.18249
G1 X165.206 Y188.960 E18.34739
G1 X163.671 Y189.868 E18.51227
G1 X162.083 Y190.677 E18.67716
G1 X160.447 Y191.385 E18.84205
G1 X158.769 Y191.989 E19.00693
G1 X157.057 Y192.486 E19.17182
G1 X155.318 Y192.875 E19.33671
G1 X153.557 Y193.154 E19.50160
G1 X151.782 Y193.322 E19.66649
G1 X150.000 Y193.378 E19.83137
G1 X148.218 Y193.322 E19.99626
G1 X146.443 Y193.154 E20.16115
G1 X144.682 Y192.875 E20.32604
G1 X142.943 Y192.486 E20.49093
G1 X141.231 Y191.989 E20.65581
G1 X139.553 Y191.385 E20.82070
G1 X137.917 Y190.677 E20.98559
G1 X136.329 Y189.868 E21.15048
G1 X134.794 Y188.960 E21.31537
G1 X133.320 Y187.958 E21.48026
G1 X131.911 Y186.866 E21.64514
G1 X130.574 Y185.687 E21.81003
G1 X129.313 Y184.426 E21.97492
G1 X128.134 Y183.089 E22.13981
G1 X127.042 Y181.680 E22.30469
G1 X126.040 Y180.206 E22.46958
G1 X125.132 Y178.671 E22.63447
G1 X124.323 Y177.083 E22.79936
G1 X123.615 Y175.447 E22.96425
G1 X123.011 Y173.769 E23.12914
G1 X122.514 Y172.057 E23.29402
G1 X122.125 Y170.318 E23.45891
G1 X121.846 Y168.557 E23.62380
G1 X121.678 Y166.782 E23.78869
G1 X121.622 Y165.000 E23.95357
G1 X121.678 Y163.218 E24.11846
G1 X121.846 Y161.443 E24.28335
G1 X122.125 Y159.682 E24.44824
G1 X122.514 Y157.943 E24.61313
G1 X123.011 Y156.231 E24.77801
G1 X123.615 Y154.553 E24.94289
G1 X124.323 Y152.917 E25.10779
G1 X125.132 Y151.329 E25.27267
G1 X126.040 Y149.794 E25.43757
G1 X127.042 Y148.320 E25.60245
G1 X128.134 Y146.911 E25.76734
G1 X129.313 Y145.574 E25.93223
G1 X130.574 Y144.313 E26.09711
G1 X131.911 Y143.134 E26.26200
G1 X133.320 Y142.042 E26.42690
G1 X134.794 Y141.040 E26.59177
G1 X136.329 Y140.132 E26.75667
G1 X137.917 Y139.323 E26.92156
G1 X139.553 Y138.615 E27.08645
G1 X141.231 Y138.011 E27.25134
G1 X142.943 Y137.514 E27.41621
G1 X144.682 Y137.125 E27.58110
G1 X146.443 Y136.846 E27.74599
G1 X148.218 Y136.678 E27.91088
G1 X150.031 Y136.623 E28.07868
G1 X151.782 Y136.678 E28.24065 F180.000
G1 X153.557 Y136.846 E28.40554
G1 X155.318 Y137.125 E28.57043
G1 X157.057 Y137.514 E28.73531
G1 X158.769 Y138.011 E28.90020
G1 X160.447 Y138.615 E29.06508
G1 X162.083 Y139.323 E29.22997
G1 X163.698 Y140.148 E29.39777
G1 X165.206 Y141.040 E29.55975
G1 X166.680 Y142.042 E29.72464
G1 X168.089 Y143.134 E29.88952
G1 X169.426 Y144.313 E30.05441
G1 X170.687 Y145.574 E30.21930
G1 X171.866 Y146.911 E30.38419
G1 X172.939 Y148.295 E30.54616
G1 X173.960 Y149.794 E30.71396
G1 X174.868 Y151.329 E30.87885
G1 X175.677 Y152.917 E31.04373
G1 X176.385 Y154.553 E31.20862
G1 X176.989 Y156.231 E31.37351
