; generated by Slic3r 1.1.7 on 2018-05-06 at 20:17:03

; perimeters extrusion width = 0.40mm
; infill extrusion width = 0.42mm
; solid infill extrusion width = 0.42mm
; top infill extrusion width = 0.42mm
; support material extrusion width = 0.40mm

G21 ; set units to millimeters
M107
M190 S60 ; wait for bed temperature to be reached
M104 S220 ; set temperature
G28 ; home all axes
G1 Z5 F5000 ; lift nozzle

M109 S220 ; wait for temperature to be reached
G90 ; use absolute coordinates
G92 E0
M82 ; use absolute distances for extrusion
G1 F1800.000 E-1.00000
G92 E0
G1 Z0.400 F7800.000
G1 X124.331 Y136.966 F7800.000
G1 E1.00000 F1800.000
G1 X125.656 Y135.790 E1.21049 F1080.000
G1 X127.456 Y134.381 E1.48189
G1 X129.082 Y133.252 E1.71704
G1 X129.973 Y132.689 E1.84215
G1 X130.639 Y132.280 E1.93508
G1 X132.192 Y131.403 E2.14684
G1 X133.699 Y130.645 E2.34724
G1 X135.015 Y130.059 E2.51836
G1 X136.452 Y129.469 E2.70277
G1 X138.222 Y128.850 E2.92544
G1 X139.013 Y128.601 E3.02399
G1 X140.356 Y128.218 E3.18980
G1 X141.487 Y127.945 E3.32803
G1 X142.836 Y127.653 E3.49189
G1 X145.204 Y127.276 E3.77672
G1 X146.222 Y127.168 E3.89836
G1 X147.473 Y127.057 E4.04741
G1 X148.500 Y127.009 E4.16955
G1 X149.993 Y126.979 E4.34698
G1 X151.749 Y127.018 E4.55557 F1080.000
G1 X152.897 Y127.085 E4.69215
G1 X155.023 Y127.302 E4.94590
G1 X156.975 Y127.618 E5.18080
G1 X158.845 Y128.021 E5.40789
G1 X159.917 Y128.290 E5.53923
G1 X161.844 Y128.861 E5.77787
G1 X163.579 Y129.483 E5.99675
G1 X164.539 Y129.865 E6.11947
G1 X165.429 Y130.252 E6.23474
G1 X166.335 Y130.676 E6.35359
G1 X167.949 Y131.488 E6.56812
G1 X168.887 Y131.999 E6.69497
G1 X170.621 Y133.046 E6.93554
G1 X172.183 Y134.115 E7.16038
G1 X173.676 Y135.250 E7.38312
G1 X174.557 Y135.965 E7.51790
G1 X176.067 Y137.310 E7.75800
G1 X177.460 Y138.698 E7.99153
G1 X178.173 Y139.465 E8.11592
G1 X179.576 Y141.098 E8.37157
G1 X180.910 Y142.843 E8.63247
G1 X182.142 Y144.675 E8.89471
G1 X183.308 Y146.650 E9.16705
G1 X184.403 Y148.796 E9.45323
G1 X185.413 Y151.135 E9.75584
G1 X185.821 Y152.260 E9.89794
G1 X186.292 Y153.644 E10.07152
G1 X186.673 Y154.964 E10.23470
G1 X187.027 Y156.365 E10.40638
G1 X187.379 Y157.993 E10.60422
G1 X187.629 Y159.563 E10.79303
G1 X187.838 Y161.297 E11.00039
G1 X187.981 Y163.193 E11.22622
G1 X188.029 Y165.288 E11.47513
G1 X187.936 Y167.670 E11.75821
G1 X187.647 Y170.339 E12.07708
G1 X187.322 Y172.223 E12.30411
G1 X187.009 Y173.708 E12.48437
G1 X186.775 Y174.621 E12.59631
G1 X186.342 Y176.138 E12.78362
G1 X186.086 Y176.947 E12.88444
G1 X185.357 Y178.965 E13.13928
G1 X185.032 Y179.775 E13.24287
G1 X184.307 Y181.370 E13.45106
G1 X183.211 Y183.506 E13.73617
G1 X182.670 Y184.443 E13.86459
G1 X181.981 Y185.545 E14.01903
G1 X180.830 Y187.239 E14.26220
G1 X180.518 Y187.668 E14.32517
G1 X178.906 Y189.704 E14.63365
G1 X177.659 Y191.087 E14.85484
G1 X176.582 Y192.182 E15.03722
G1 X175.940 Y192.788 E15.14211
G1 X174.519 Y194.060 E15.36851
G1 X172.715 Y195.490 E15.64198
G1 X172.265 Y195.812 E15.70771
G1 X171.055 Y196.657 E15.88297
G1 X169.469 Y197.656 E16.10563
G1 X167.903 Y198.548 E16.31963
G1 X166.467 Y199.274 E16.51068
G1 X165.104 Y199.890 E16.68832
G1 X163.634 Y200.500 E16.87733
G1 X162.406 Y200.940 E17.03236
G1 X161.070 Y201.375 E17.19920
G1 X159.760 Y201.750 E17.36099
G1 X158.593 Y202.037 E17.50380
G1 X157.278 Y202.323 E17.66358
G1 X156.190 Y202.513 E17.79480
G1 X154.907 Y202.709 E17.94890
G1 X153.852 Y202.825 E18.07497
G1 X152.651 Y202.933 E18.21815
G1 X150.468 Y203.021 E18.47763
G1 X149.346 Y203.018 E18.61088
G1 X147.170 Y202.921 E18.86954
G1 X145.053 Y202.708 E19.12230
G1 X143.123 Y202.399 E19.35439
G1 X141.251 Y202.001 E19.58167
G1 X140.144 Y201.728 E19.71707
G1 X138.250 Y201.168 E19.95171
G1 X136.509 Y200.549 E20.17116
G1 X135.519 Y200.160 E20.29740
G1 X133.693 Y199.357 E20.53434
G1 X132.064 Y198.528 E20.75148
G1 X131.168 Y198.033 E20.87302
G1 X129.432 Y196.990 E21.11355
G1 X127.896 Y195.941 E21.33443
G1 X127.101 Y195.354 E21.45176
G1 X125.492 Y194.078 E21.69572
G1 X124.005 Y192.757 E21.93193
G1 X122.610 Y191.374 E22.16522
G1 X121.872 Y190.586 E22.29340
G1 X120.467 Y188.958 E22.54884
G1 X119.142 Y187.230 E22.80746
G1 X117.915 Y185.413 E23.06785
G1 X116.746 Y183.444 E23.33983
G1 X116.237 Y182.482 E23.46910
G1 X115.646 Y181.304 E23.62563
G1 X115.183 Y180.274 E23.75972
G1 X114.630 Y178.971 E23.92785
G1 X114.220 Y177.855 E24.06899
G1 X113.734 Y176.446 E24.24606
G1 X113.359 Y175.147 E24.40664
G1 X112.994 Y173.733 E24.58009
G1 X112.648 Y172.135 E24.77423
G1 X112.392 Y170.572 E24.96237
G1 X112.175 Y168.845 E25.16908
G1 X112.023 Y166.959 E25.39383
G1 X111.970 Y164.872 E25.64175
G1 X112.052 Y162.548 E25.91796
G1 X112.319 Y159.876 E26.23687
G1 X112.588 Y158.263 E26.43103
G1 X112.923 Y156.593 E26.63335
G1 X113.225 Y155.379 E26.78190
G1 X113.658 Y153.863 E26.96920
G1 X113.888 Y153.128 E27.06064
G1 X114.618 Y151.075 E27.31942
G1 X115.430 Y149.190 E27.56311
G1 X115.693 Y148.630 E27.63669
G1 X116.813 Y146.452 E27.92753
G1 X117.976 Y144.493 E28.19805
G1 X119.482 Y142.332 E28.51085
G1 X120.700 Y140.780 E28.74523
G1 X121.265 Y140.103 E28.84993
G1 X122.349 Y138.905 E29.04178
G1 X123.609 Y137.630 E29.25473
G1 X124.286 Y137.007 E29.36404
G1 F1800.000 E28.36404
G92 E0
G1 X127.567 Y142.079 F7800.000
G1 E1.00000 F1800.000
G1 X127.848 Y141.985 E1.03513 F1080.000
G1 X128.002 Y142.063 E1.05562
G1 X128.563 Y141.876 E1.12588
G1 X129.211 Y140.584 E1.29751
G1 X129.492 Y140.491 E1.33265
G1 X129.646 Y140.568 E1.35313
G1 X130.207 Y140.382 E1.42340
G1 X130.660 Y139.479 E1.54327
G1 X130.778 Y139.334 E1.56561
G1 X132.604 Y138.050 E1.83064
G1 X132.898 Y138.065 E1.86565
G1 X133.265 Y137.851 E1.91614
G1 X133.379 Y137.641 E1.94450
G1 X133.538 Y137.484 E1.97102
G1 X135.226 Y136.523 E2.20168
G1 X135.390 Y136.543 E2.22132
G1 X135.694 Y136.441 E2.25943
G1 X136.042 Y136.123 E2.31534
G1 X137.647 Y135.405 E2.52424
G1 X137.766 Y135.428 E2.53868
G1 X138.089 Y135.340 E2.57836
G1 X138.365 Y135.112 E2.62097
G1 X139.920 Y134.552 E2.81716
G1 X140.023 Y134.579 E2.82982
G1 X140.358 Y134.503 E2.87062
G1 X140.559 Y134.355 E2.90029
G1 X142.076 Y133.914 E3.08786
G1 X142.131 Y133.931 E3.09466
G1 X142.397 Y133.912 E3.12633
G1 X142.660 Y133.787 E3.16091
G1 X144.142 Y133.456 E3.34129
G1 X144.200 Y133.477 E3.34859
G1 X144.467 Y133.470 E3.38026
G1 X144.682 Y133.380 E3.40792
G1 X146.132 Y133.151 E3.58227
G1 X146.186 Y133.173 E3.58924
G1 X146.452 Y133.179 E3.62091
G1 X146.635 Y133.113 E3.64399
G1 X148.054 Y132.979 E3.81328
G1 X148.100 Y133.000 E3.81927
G1 X148.366 Y133.019 E3.85094
G1 X148.529 Y132.968 E3.87117
G1 X149.918 Y132.924 E4.03622
G1 X149.951 Y132.942 E4.04069
G1 X150.216 Y132.973 E4.07236 F1080.000
G1 X150.369 Y132.933 E4.09109
G1 X151.728 Y132.976 E4.25260
G1 X152.009 Y133.030 E4.28664
G1 X152.160 Y132.999 E4.30490
G1 X153.489 Y133.125 E4.46348
G1 X153.752 Y133.181 E4.49538
G1 X153.906 Y133.157 E4.51394
G1 X155.205 Y133.362 E4.67016
G1 X155.470 Y133.431 E4.70266
G1 X155.592 Y133.416 E4.71725
G1 X156.869 Y133.677 E4.87209
G1 X157.150 Y133.767 E4.90713
G1 X157.232 Y133.759 E4.91696
G1 X158.491 Y134.067 E5.07080
G1 X158.529 Y134.099 E5.07672
G1 X158.788 Y134.183 E5.10906
G1 X158.837 Y134.180 E5.11492
G1 X160.074 Y134.539 E5.26785
G1 X160.124 Y134.583 E5.27580
G1 X161.622 Y135.107 E5.46432
G1 X161.652 Y135.136 E5.46923
G1 X161.898 Y135.240 E5.50090
G1 X161.964 Y135.242 E5.50876
G1 X163.134 Y135.748 E5.66016
G1 X163.164 Y135.780 E5.66531
G1 X163.406 Y135.895 E5.69720
G1 X163.461 Y135.899 E5.70377
G1 X164.860 Y136.613 E5.89024
G1 X164.911 Y136.617 E5.89631
G1 X166.032 Y137.222 E6.04759
G1 X166.076 Y137.275 E6.05585
G1 X166.335 Y137.409 E6.09040
G1 X167.429 Y138.065 E6.24193
G1 X167.487 Y138.141 E6.25330
G1 X167.726 Y138.281 E6.28619
G1 X168.786 Y139.001 E6.43832
G1 X168.837 Y139.073 E6.44882
G1 X169.086 Y139.227 E6.48358
G1 X170.105 Y140.018 E6.63678
G1 X170.142 Y140.077 E6.64509
G1 X170.357 Y140.235 E6.67676
G1 X170.408 Y140.249 E6.68300
G1 X171.385 Y141.110 E6.83770
G1 X171.417 Y141.167 E6.84545
G1 X171.627 Y141.336 E6.87739
G1 X171.683 Y141.353 E6.88441
G1 X172.622 Y142.277 E7.04080
G1 X172.664 Y142.357 E7.05154
G1 X172.905 Y142.548 E7.08806
G1 X173.813 Y143.520 E7.24601
G1 X173.869 Y143.638 E7.26158
G1 X174.085 Y143.829 E7.29582
G1 X174.959 Y144.853 E7.45571
G1 X175.028 Y145.011 E7.47623
G1 X175.222 Y145.203 E7.50859
G1 X176.057 Y146.285 E7.67090
G1 X176.137 Y146.486 E7.69658
G1 X176.312 Y146.675 E7.72718
G1 X177.101 Y147.836 E7.89389
G1 X177.179 Y148.064 E7.92253
G1 X177.355 Y148.270 E7.95474
G1 X178.085 Y149.504 E8.12502
G1 X178.162 Y149.766 E8.15748
G1 X178.333 Y149.984 E8.19031
G1 X179.004 Y151.301 E8.36585
G1 X179.024 Y151.492 E8.38876
G1 X179.191 Y151.805 E8.43082
G1 X179.240 Y151.838 E8.43789
G1 X179.848 Y153.243 E8.61969
G1 X179.858 Y153.501 E8.65029
G1 X180.006 Y153.812 E8.69126
G1 X180.071 Y153.861 E8.70092
G1 X180.598 Y155.379 E8.89169
G1 X180.591 Y155.696 E8.92935
G1 X180.721 Y156.005 E8.96916
G1 X180.810 Y156.082 E8.98319
G1 X181.234 Y157.743 E9.18678
G1 X181.206 Y158.117 E9.23126
G1 X181.314 Y158.424 E9.26993
G1 X181.433 Y158.541 E9.28983
G1 X181.731 Y160.384 E9.51143
G1 X181.704 Y160.619 E9.53961
G1 X181.638 Y160.824 E9.56520
G1 X181.717 Y161.195 E9.61022
G1 X181.867 Y161.363 E9.63695
G1 X182.031 Y163.404 E9.88008
G1 X181.982 Y163.654 E9.91034
G1 X181.627 Y164.362 E10.00438
G1 X181.814 Y164.923 E10.07464
G1 X181.968 Y165.000 E10.09513
G1 X182.061 Y165.281 E10.13026
G1 X181.567 Y166.268 E10.26142
G1 X181.753 Y166.830 E10.33169
G1 X181.907 Y166.907 E10.35217
G1 X182.001 Y167.188 E10.38731
G1 X181.335 Y168.516 E10.56382
G1 X181.521 Y169.078 E10.63408
G1 X181.675 Y169.155 E10.65457
G1 X181.769 Y169.436 E10.68970
G1 X180.807 Y171.354 E10.94455
G1 X180.994 Y171.916 E11.01481
G1 X181.148 Y171.993 E11.03530
G1 X181.241 Y172.274 E11.07043
G1 X179.210 Y176.326 E11.60881
G1 X179.397 Y176.888 E11.67907
G1 X179.551 Y176.965 E11.69956
G1 X179.644 Y177.246 E11.73469
G1 X177.571 Y181.383 E12.28428
G1 X177.290 Y181.476 E12.31941
G1 X177.136 Y181.399 E12.33989
G1 X176.574 Y181.585 E12.41016
G1 X174.514 Y185.697 E12.95637
G1 X174.233 Y185.790 E12.99150
G1 X174.079 Y185.713 E13.01199
G1 X173.517 Y185.899 E13.08225
G1 X172.575 Y187.779 E13.33200
G1 X172.294 Y187.873 E13.36713
G1 X172.140 Y187.795 E13.38762
G1 X171.579 Y187.982 E13.45788
G1 X170.916 Y189.304 E13.63351
G1 X170.635 Y189.397 E13.66864
G1 X170.481 Y189.320 E13.68913
G1 X169.920 Y189.506 E13.75939
G1 X169.457 Y190.430 E13.88209
G1 X169.307 Y190.604 E13.90934
G1 X167.507 Y191.877 E14.17117
G1 X167.207 Y191.863 E14.20688
G1 X166.841 Y192.077 E14.25719
G1 X166.722 Y192.299 E14.28707
G1 X166.565 Y192.454 E14.31337
G1 X164.873 Y193.429 E14.54529
G1 X164.702 Y193.409 E14.56566
G1 X164.398 Y193.512 E14.60373
G1 X164.056 Y193.827 E14.65897
G1 X162.447 Y194.557 E14.86887
G1 X162.326 Y194.534 E14.88346
G1 X162.005 Y194.622 E14.92297
G1 X161.721 Y194.857 E14.96680
G1 X160.167 Y195.417 E15.16300
G1 X160.067 Y195.391 E15.17519
G1 X159.732 Y195.467 E15.21599
G1 X159.524 Y195.621 E15.24678
G1 X158.007 Y196.062 E15.43436
G1 X157.916 Y196.034 E15.44561
G1 X157.573 Y196.098 E15.48711
G1 X157.420 Y196.195 E15.50863
G1 X155.938 Y196.526 E15.68901
G1 X155.885 Y196.508 E15.69559
G1 X155.619 Y196.514 E15.72726
G1 X155.395 Y196.607 E15.75602
G1 X153.945 Y196.837 E15.93037
G1 X153.897 Y196.817 E15.93664
G1 X153.630 Y196.811 E15.96831
G1 X153.439 Y196.880 E15.99240
G1 X152.020 Y197.014 E16.16169
G1 X151.980 Y196.995 E16.16700
G1 X151.714 Y196.977 E16.19867
G1 X151.543 Y197.030 E16.21985
G1 X150.154 Y197.073 E16.38489
G1 X149.861 Y197.027 E16.42014
G1 X149.701 Y197.069 E16.43976
G1 X148.342 Y197.026 E16.60126
G1 X148.065 Y196.975 E16.63469
G1 X147.908 Y197.007 E16.65377
G1 X146.574 Y196.881 E16.81296
G1 X146.319 Y196.827 E16.84390
G1 X146.161 Y196.852 E16.86285
G1 X144.861 Y196.648 E17.01912
G1 X144.594 Y196.579 E17.05194
G1 X144.477 Y196.594 E17.06594
G1 X143.197 Y196.339 E17.22092
G1 X142.912 Y196.247 E17.25653
G1 X142.834 Y196.255 E17.26578
G1 X141.574 Y195.953 E17.41974
G1 X141.531 Y195.918 E17.42624
G1 X141.273 Y195.835 E17.45841
G1 X141.224 Y195.838 E17.46424
G1 X139.988 Y195.479 E17.61718
G1 X139.942 Y195.439 E17.62449
G1 X139.691 Y195.347 E17.65616
G1 X139.641 Y195.348 E17.66207
G1 X138.438 Y194.914 E17.81403
G1 X138.166 Y194.786 E17.84972
G1 X138.094 Y194.783 E17.85826
G1 X136.924 Y194.277 E18.00966
G1 X136.672 Y194.151 E18.04317
G1 X136.586 Y194.145 E18.05338
G1 X135.187 Y193.424 E18.24024
G1 X135.137 Y193.419 E18.24622
G1 X134.020 Y192.807 E18.39753
G1 X133.980 Y192.759 E18.40501
G1 X132.626 Y191.973 E18.59092
G1 X132.564 Y191.894 E18.60288
G1 X132.327 Y191.755 E18.63555
G1 X131.267 Y191.035 E18.78769
G1 X131.220 Y190.967 E18.79749
G1 X130.965 Y190.812 E18.83285
G1 X129.946 Y190.022 E18.98605
G1 X129.912 Y189.968 E18.99364
G1 X129.697 Y189.810 E19.02531
G1 X129.641 Y189.795 E19.03217
G1 X128.664 Y188.933 E19.18687
G1 X128.632 Y188.876 E19.19465
G1 X128.421 Y188.707 E19.22675
G1 X128.369 Y188.691 E19.23321
G1 X127.427 Y187.773 E19.38943
G1 X127.383 Y187.689 E19.40075
G1 X127.146 Y187.500 E19.43670
G1 X126.234 Y186.534 E19.59444
G1 X126.175 Y186.412 E19.61061
G1 X125.963 Y186.223 E19.64425
G1 X125.085 Y185.205 E19.80391
G1 X125.013 Y185.042 E19.82506
G1 X124.824 Y184.855 E19.85667
G1 X123.985 Y183.774 E20.01919
G1 X123.906 Y183.575 E20.04466
G1 X123.725 Y183.380 E20.07623
G1 X122.940 Y182.224 E20.24218
G1 X122.864 Y182.004 E20.26986
G1 X122.683 Y181.795 E20.30271
G1 X121.953 Y180.561 E20.47299
G1 X121.879 Y180.307 E20.50442
G1 X121.703 Y180.086 E20.53791
G1 X121.032 Y178.769 E20.71345
G1 X121.012 Y178.585 E20.73544
G1 X120.845 Y178.273 E20.77751
G1 X120.793 Y178.237 E20.78500
G1 X120.185 Y176.833 E20.96679
G1 X120.175 Y176.583 E20.99640
G1 X120.025 Y176.271 E21.03755
G1 X119.961 Y176.223 E21.04702
G1 X119.428 Y174.714 E21.23710
G1 X119.434 Y174.392 E21.27534
G1 X119.304 Y174.083 E21.31521
G1 X119.219 Y174.009 E21.32857
G1 X118.788 Y172.358 E21.53130
G1 X118.816 Y171.979 E21.57640
G1 X118.706 Y171.672 E21.61512
G1 X118.591 Y171.558 E21.63434
G1 X118.286 Y169.727 E21.85487
G1 X118.313 Y169.489 E21.88326
G1 X118.375 Y169.295 E21.90752
G1 X118.294 Y168.923 E21.95266
G1 X118.146 Y168.759 E21.97894
G1 X117.973 Y166.733 E22.22044
G1 X118.022 Y166.480 E22.25099
G1 X118.372 Y165.780 E22.34396
G1 X118.186 Y165.219 E22.41423
G1 X118.032 Y165.141 E22.43471
G1 X117.938 Y164.861 E22.46984
G1 X118.428 Y163.884 E22.59955
G1 X118.241 Y163.323 E22.66982
G1 X118.087 Y163.246 E22.69030
G1 X117.994 Y162.965 E22.72543
G1 X118.633 Y161.690 E22.89479
G1 X118.446 Y161.129 E22.96505
G1 X118.292 Y161.051 E22.98554
G1 X118.199 Y160.771 E23.02067
G1 X119.136 Y158.901 E23.26909
G1 X118.949 Y158.339 E23.33935
G1 X118.795 Y158.262 E23.35984
G1 X118.702 Y157.981 E23.39497
G1 X120.478 Y154.437 E23.86577
G1 X120.291 Y153.876 E23.93604
G1 X120.137 Y153.798 E23.95652
G1 X120.044 Y153.518 E23.99166
G1 X122.894 Y147.832 E24.74694
G1 X123.174 Y147.739 E24.78207
G1 X123.328 Y147.816 E24.80256
G1 X123.890 Y147.630 E24.87282
G1 X125.651 Y144.117 E25.33950
G1 X125.931 Y144.024 E25.37463
G1 X126.085 Y144.101 E25.39511
G1 X126.647 Y143.914 E25.46538
G1 X127.540 Y142.132 E25.70212
G1 X128.178 Y142.550 F7800.000
G1 X118.942 Y160.978 E27.07326 F1080.000
G1 X118.737 Y163.172 F7800.000
G1 X129.821 Y141.056 E28.71887 F1080.000
G1 X126.261 Y144.588 F7800.000
G1 X119.445 Y158.188 E29.73079 F1080.000
G1 X120.787 Y153.725 F7800.000
G1 X123.504 Y148.304 E30.13415 F1080.000
G1 X118.681 Y165.068 F7800.000
G1 X131.304 Y139.883 E32.00808 F1080.000
G1 X132.682 Y138.919 E32.11995
G1 X118.734 Y166.748 E34.19062
G1 X118.865 Y168.273 E34.29245
G1 X133.988 Y138.100 E36.53757
G1 X135.240 Y137.386 E36.63348
G1 X119.048 Y169.693 E39.03737
G1 X119.271 Y171.033 E39.12777
G1 X136.442 Y136.773 E41.67696
G1 X137.596 Y136.257 E41.76103
G1 X119.547 Y172.268 E44.44052
G1 X119.853 Y173.442 E44.52125
G1 X138.726 Y135.787 E47.32314
G1 X139.818 Y135.393 E47.40034
G1 X120.182 Y174.573 E50.31558
G1 X120.551 Y175.620 E50.38948
G1 X140.886 Y135.048 E53.40836
G1 X141.934 Y134.744 E53.48091
G1 X120.930 Y176.649 E56.59899
G1 X121.345 Y177.607 E56.66844
