; generated by Slic3r 1.1.7 on 2018-05-15 at 09:21:50

; perimeters extrusion width = 0.40mm
; infill extrusion width = 0.42mm
; solid infill extrusion width = 0.42mm
; top infill extrusion width = 0.42mm

G21 ; set units to millimeters
M107
M190 S56 ; wait for bed temperature to be reached
M104 S225 ; set temperature
G28 ; home all axes
G1 Z5 F5000 ; lift nozzle

M109 S225 ; wait for temperature to be reached
G90 ; use absolute coordinates
G92 E0
M82 ; use absolute distances for extrusion
G1 F1800.000 E-1.00000
G92 E0
G1 Z0.350 F6600.000
G1 X101.405 Y117.249 F6600.000
G1 E1.00000 F1800.000
G1 X103.158 Y115.767 E1.21230 F1080.000
G1 X105.311 Y114.972 E1.42459
G1 X106.500 Y114.864 E1.53502
G1 X193.500 Y114.864 E9.58173
G1 X195.761 Y115.261 E9.79403
G1 X197.751 Y116.405 E10.00632 F1080.000
G1 X199.233 Y118.158 E10.21862
G1 X200.028 Y120.311 E10.43092
G1 X200.136 Y121.500 E10.54134
G1 X200.136 Y208.500 E18.58805
G1 X199.739 Y210.761 E18.80035
G1 X198.595 Y212.751 E19.01265
G1 X196.842 Y214.233 E19.22494
G1 X194.689 Y215.028 E19.43724
G1 X193.500 Y215.136 E19.54767
G1 X106.500 Y215.136 E27.59438
G1 X104.239 Y214.739 E27.80667
G1 X102.249 Y213.595 E28.01897
G1 X100.767 Y211.842 E28.23127
G1 X99.972 Y209.689 E28.44356
G1 X99.864 Y208.500 E28.55399
G1 X99.864 Y121.500 E36.60070
G1 X100.261 Y119.239 E36.81300
G1 X101.375 Y117.301 E37.01974
G1 F1800.000 E36.01974
G92 E0
G1 X106.182 Y121.368 F6600.000
G1 E1.00000 F1800.000
G1 X106.368 Y121.182 E1.02435 F1080.000
G1 X193.632 Y121.182 E9.09541
G1 X193.818 Y121.368 E9.11977
G1 X193.818 Y208.632 E17.19083
G1 X193.632 Y208.818 E17.21518
G1 X106.368 Y208.818 E25.28624
G1 X106.182 Y208.632 E25.31060
G1 X106.182 Y121.428 E33.37611
G1 F1800.000 E32.37611
G92 E0
G1 X193.150 Y208.150 F6600.000
G1 E1.00000 F1800.000
G1 X106.850 Y208.150 E8.98197 F126.000
G1 X106.850 Y121.850 E16.96394
G1 X193.150 Y121.850 E24.94591
G1 X193.150 Y208.090 E32.92233
G1 X192.804 Y207.950 F6600.000
G1 X192.514 Y207.514 F6600.000
G1 X190.838 Y207.514 E33.07739 F180.000
G1 X190.754 Y207.109 E33.11568
G1 X191.198 Y206.888 E33.16158
G1 X191.425 Y206.723 E33.18755
G1 X191.630 Y206.531 E33.21351
G1 X191.888 Y206.198 E33.25243
G1 X192.109 Y205.754 E33.29834
G1 X192.514 Y205.838 E33.33663
G1 X192.514 Y207.454 E33.48614
G1 X192.109 Y124.246 F6600.000
G1 X191.888 Y123.802 E33.53203 F180.000
G1 X191.723 Y123.575 E33.55800
G1 X191.531 Y123.370 E33.58400
G1 X191.198 Y123.112 E33.62287
G1 X190.754 Y122.891 E33.66881
G1 X190.838 Y122.486 E33.70709
G1 X192.514 Y122.486 E33.86215
G1 X192.514 Y124.162 E34.01721
G1 X192.168 Y124.234 E34.04996
G1 X190.657 Y202.388 F6600.000
G1 X189.177 Y202.921 E34.19553 F180.000
G1 X188.923 Y203.040 E34.22145
G1 X188.686 Y203.191 E34.24743
G1 X188.469 Y203.370 E34.27346
G1 X188.191 Y203.686 E34.31237
G1 X188.040 Y203.923 E34.33836
G1 X187.873 Y204.309 E34.37725
G1 X187.788 Y204.680 E34.41246
G1 X187.764 Y205.000 E34.44212
G1 X187.804 Y205.419 E34.48110
G1 X187.921 Y205.823 E34.52002
G1 X188.112 Y206.198 E34.55893
G1 X188.277 Y206.425 E34.58491
G1 X188.469 Y206.630 E34.61088
G1 X188.802 Y206.888 E34.64980
G1 X189.246 Y207.109 E34.69570
G1 X189.162 Y207.514 E34.73398
G1 X110.838 Y207.514 E41.97827
G1 X110.754 Y207.109 E42.01654
G1 X111.077 Y206.960 E42.04946
G1 X111.314 Y206.809 E42.07548
G1 X111.531 Y206.630 E42.10144
G1 X111.723 Y206.425 E42.12744
G1 X111.888 Y206.199 E42.15336
G1 X112.023 Y205.952 E42.17937
G1 X112.127 Y205.691 E42.20533
G1 X112.196 Y205.420 E42.23122
G1 X112.232 Y205.140 E42.25734
G1 X112.232 Y204.860 E42.28321
G1 X112.196 Y204.580 E42.30930
G1 X112.127 Y204.309 E42.33521
G1 X112.023 Y204.048 E42.36120
G1 X111.888 Y203.802 E42.38718
G1 X111.723 Y203.575 E42.41313
G1 X111.559 Y203.398 E42.43541
G1 X111.198 Y203.112 E42.47800
G1 X110.952 Y202.977 E42.50398
G1 X110.691 Y202.873 E42.52997
G1 X110.419 Y202.804 E42.55589
G1 X110.140 Y202.768 E42.58190
G1 X109.860 Y202.768 E42.60781
G1 X109.580 Y202.804 E42.63389
G1 X109.309 Y202.873 E42.65983
G1 X109.049 Y202.976 E42.68571
G1 X108.802 Y203.112 E42.71176
G1 X108.574 Y203.277 E42.73773
G1 X108.370 Y203.469 E42.76366
G1 X108.191 Y203.686 E42.78969
G1 X108.040 Y203.923 E42.81565
G1 X107.891 Y204.246 E42.84860
G1 X107.486 Y204.162 E42.88688
G1 X107.486 Y125.838 E50.13116
G1 X107.891 Y125.754 E50.16942
G1 X108.040 Y126.077 E50.20238
G1 X108.191 Y126.315 E50.22841
G1 X108.370 Y126.531 E50.25433
G1 X108.575 Y126.723 E50.28031
G1 X108.802 Y126.888 E50.30626
G1 X109.048 Y127.023 E50.33228
G1 X109.309 Y127.127 E50.35820
G1 X109.580 Y127.196 E50.38414
G1 X110.040 Y127.235 E50.42684
G1 X110.280 Y127.219 E50.44907
G1 X110.557 Y127.166 E50.47511
G1 X110.824 Y127.079 E50.50108
G1 X111.077 Y126.960 E50.52699
G1 X111.314 Y126.809 E50.55294
G1 X111.531 Y126.630 E50.57898
G1 X111.723 Y126.425 E50.60491
G1 X111.888 Y126.199 E50.63085
G1 X112.023 Y125.952 E50.65686
G1 X112.127 Y125.691 E50.68285
G1 X112.196 Y125.420 E50.70871
G1 X112.232 Y125.140 E50.73484
G1 X112.232 Y124.860 E50.76070
G1 X112.196 Y124.580 E50.78680
G1 X112.127 Y124.309 E50.81273
G1 X112.023 Y124.048 E50.83865
G1 X111.888 Y123.802 E50.86467
G1 X111.723 Y123.575 E50.89062
G1 X111.531 Y123.370 E50.91660
G1 X111.315 Y123.191 E50.94252
G1 X111.077 Y123.040 E50.96855
G1 X110.754 Y122.891 E51.00151
G1 X110.838 Y122.486 E51.03977
G1 X189.162 Y122.486 E58.28405
G1 X189.246 Y122.891 E58.32233
G1 X188.923 Y123.040 E58.35529
G1 X188.686 Y123.191 E58.38124
G1 X188.469 Y123.370 E58.40723
G1 X188.277 Y123.574 E58.43320
G1 X188.112 Y123.802 E58.45917
G1 X187.976 Y124.049 E58.48522
G1 X187.873 Y124.309 E58.51110
G1 X187.804 Y124.580 E58.53705
G1 X187.768 Y124.860 E58.56312
G1 X187.768 Y125.140 E58.58904
G1 X187.804 Y125.419 E58.61504
G1 X187.873 Y125.691 E58.64096
G1 X187.977 Y125.952 E58.66695
G1 X188.112 Y126.198 E58.69294
G1 X188.277 Y126.425 E58.71891
G1 X188.469 Y126.630 E58.74483
G1 X188.686 Y126.809 E58.77086
G1 X188.923 Y126.960 E58.79683
G1 X189.347 Y127.138 E58.83943
G1 X189.580 Y127.196 E58.86163
G1 X189.860 Y127.232 E58.88773
G1 X190.140 Y127.232 E58.91359
G1 X190.420 Y127.196 E58.93970
G1 X190.691 Y127.127 E58.96560
G1 X190.952 Y127.023 E58.99156
G1 X191.198 Y126.888 E59.01756
G1 X191.425 Y126.723 E59.04349
G1 X191.630 Y126.531 E59.06951
G1 X191.809 Y126.314 E59.09546
G1 X191.960 Y126.077 E59.12147
G1 X192.109 Y125.754 E59.15439
G1 X192.514 Y125.838 E59.19267
G1 X192.514 Y204.162 E66.43695
G1 X192.109 Y204.246 E66.47523
G1 X191.888 Y203.802 E66.52113
G1 X191.723 Y203.575 E66.54711
G1 X191.531 Y203.370 E66.57307
G1 X191.314 Y203.191 E66.59910
G1 X191.077 Y203.040 E66.62506
G1 X190.657 Y202.861 E66.66724
G1 X190.657 Y202.448 E66.70546
G1 X191.293 Y201.484 F6600.000
G1 X188.942 Y202.330 E66.93654 F180.000
G1 X188.617 Y202.483 E66.96981
G1 X188.312 Y202.676 E67.00319
G1 X188.034 Y202.907 E67.03663
G1 X187.787 Y203.169 E67.06996
G1 X187.575 Y203.461 E67.10328
G1 X187.330 Y203.942 E67.15327
G1 X187.218 Y204.285 E67.18663
G1 X187.150 Y204.641 E67.22010
G1 X187.134 Y205.180 E67.27000
G1 X187.179 Y205.539 E67.30342
G1 X187.330 Y206.058 E67.35340
G1 X187.483 Y206.383 E67.38667
G1 X187.776 Y206.879 E67.43993
G1 X112.224 Y206.879 E74.42781
G1 X112.517 Y206.383 E74.48103
G1 X112.731 Y205.888 E74.53100
G1 X112.850 Y205.360 E74.58103
G1 X112.866 Y204.821 E74.63093
G1 X112.781 Y204.285 E74.68112
G1 X112.598 Y203.777 E74.73104
G1 X112.324 Y203.312 E74.78099
G1 X112.008 Y202.949 E74.82548
G1 X111.688 Y202.676 E74.86440
G1 X111.223 Y202.401 E74.91436
G1 X110.715 Y202.218 E74.96425
G1 X110.180 Y202.134 E75.01435
G1 X109.641 Y202.150 E75.06424
G1 X109.112 Y202.269 E75.11436
G1 X108.617 Y202.483 E75.16426
G1 X108.121 Y202.776 E75.21754
G1 X108.121 Y127.224 E82.20547
G1 X108.617 Y127.517 E82.25872
G1 X109.112 Y127.731 E82.30864
G1 X109.641 Y127.850 E82.35877
G1 X110.179 Y127.866 E82.40859
G1 X110.540 Y127.821 E82.44220
G1 X111.058 Y127.670 E82.49212
G1 X111.540 Y127.425 E82.54211
G1 X111.966 Y127.093 E82.59209
G1 X112.324 Y126.688 E82.64208
G1 X112.599 Y126.223 E82.69202
G1 X112.782 Y125.715 E82.74193
G1 X112.866 Y125.179 E82.79211
G1 X112.850 Y124.641 E82.84193
G1 X112.731 Y124.112 E82.89207
G1 X112.517 Y123.617 E82.94198
G1 X112.224 Y123.121 E82.99524
G1 X187.776 Y123.121 E89.98317
G1 X187.483 Y123.617 E90.03645
G1 X187.269 Y124.112 E90.08634
G1 X187.150 Y124.641 E90.13646
G1 X187.134 Y125.180 E90.18636
G1 X187.218 Y125.715 E90.23645
G1 X187.401 Y126.223 E90.28634
G1 X187.676 Y126.688 E90.33631
G1 X188.033 Y127.093 E90.38628
G1 X188.461 Y127.425 E90.43631
G1 X188.942 Y127.670 E90.48631
G1 X189.461 Y127.821 E90.53624
G1 X189.821 Y127.866 E90.56980
G1 X190.360 Y127.850 E90.61969
G1 X190.888 Y127.731 E90.66972
G1 X191.383 Y127.517 E90.71968
G1 X191.879 Y127.224 E90.77291
G1 X191.879 Y202.776 E97.76079
G1 X191.293 Y202.430 E97.82372
G1 X191.293 Y201.544 E97.90566
G1 F1800.000 E96.90566
G92 E0
G1 X109.246 Y122.891 F6600.000
G1 E1.00000 F1800.000
G1 X108.801 Y123.112 E1.04594 F180.000
G1 X108.469 Y123.370 E1.08482
G1 X108.277 Y123.575 E1.11080
G1 X108.112 Y123.801 E1.13673
G1 X107.891 Y124.246 E1.18267
G1 X107.486 Y124.162 E1.22095
G1 X107.486 Y122.486 E1.37602
G1 X109.162 Y122.486 E1.53108
G1 X109.234 Y122.832 E1.56382
G1 F1800.000 E0.56382
G92 E0
G1 X107.891 Y205.754 F6600.000
G1 E1.00000 F1800.000
G1 X108.112 Y206.198 E1.04594 F180.000
G1 X108.277 Y206.425 E1.07185
G1 X108.441 Y206.602 E1.09416
G1 X108.802 Y206.888 E1.13675
G1 X109.246 Y207.109 E1.18264
G1 X109.162 Y207.514 E1.22094
G1 X107.486 Y207.514 E1.37600
G1 X107.486 Y205.838 E1.53106
G1 X107.832 Y205.766 E1.56379
G1 X108.493 Y205.537 F6600.000
G1 X108.413 Y205.201 E1.59576 F126.000
G1 X108.400 Y205.000 E1.61435
G1 X108.413 Y204.799 E1.63297
G1 X108.450 Y204.602 E1.65153
G1 X108.512 Y204.411 E1.67014
G1 X108.598 Y204.229 E1.68870
G1 X108.705 Y204.060 E1.70728
G1 X108.834 Y203.905 E1.72589
G1 X108.980 Y203.767 E1.74446
G1 X109.143 Y203.649 E1.76304
G1 X109.319 Y203.552 E1.78166
G1 X109.505 Y203.478 E1.80021
G1 X109.700 Y203.428 E1.81879
G1 X110.081 Y203.402 E1.85407
G1 X110.300 Y203.428 E1.87450 F126.000
G1 X110.494 Y203.478 E1.89307
G1 X110.681 Y203.552 E1.91166
G1 X110.857 Y203.649 E1.93025
G1 X111.020 Y203.767 E1.94884
G1 X111.233 Y203.980 E1.97669
G1 X111.351 Y204.142 E1.99527
G1 X111.448 Y204.319 E2.01386
G1 X111.527 Y204.525 E2.03431
G1 X111.588 Y204.800 E2.06032
G1 X111.600 Y205.000 E2.07889
G1 X111.588 Y205.201 E2.09748
G1 X111.550 Y205.398 E2.11609
G1 X111.488 Y205.589 E2.13466
G1 X111.402 Y205.771 E2.15324
G1 X111.295 Y205.940 E2.17181
G1 X111.166 Y206.096 E2.19044
G1 X110.941 Y206.295 E2.21827
G1 X110.771 Y206.402 E2.23687
G1 X110.589 Y206.488 E2.25543
G1 X110.398 Y206.550 E2.27404
G1 X110.201 Y206.588 E2.29261
G1 X110.000 Y206.600 E2.31119
G1 X109.799 Y206.587 E2.32980
G1 X109.602 Y206.550 E2.34836
G1 X109.411 Y206.488 E2.36696
G1 X109.229 Y206.402 E2.38553
G1 X109.059 Y206.295 E2.40413
G1 X108.905 Y206.166 E2.42271
G1 X108.767 Y206.020 E2.44131
G1 X108.649 Y205.858 E2.45988
G1 X108.514 Y205.593 E2.48734
G1 F1800.000 E1.48734
G92 E0
G1 X110.136 Y203.189 F6600.000
G1 X130.729 Y174.126 F6600.000
G1 E1.00000 F1800.000
G1 X130.433 Y173.865 E1.03656 F126.000
G1 X130.264 Y173.661 E1.06096
G1 X130.063 Y173.321 E1.09752
G1 X129.966 Y173.076 E1.12191
G1 X129.897 Y172.797 E1.14850
G1 X129.863 Y172.427 E1.18286
G1 X129.900 Y172.033 E1.21943
G1 X129.966 Y171.778 E1.24381
G1 X130.074 Y171.511 E1.27040
G1 X130.264 Y171.192 E1.30477
G1 X130.432 Y170.989 E1.32916
G1 X130.729 Y170.728 E1.36572
G1 X130.952 Y170.586 E1.39012
G1 X131.314 Y170.429 E1.42667
G1 X131.700 Y170.343 E1.46324
G1 X132.071 Y170.330 E1.49760
G1 X132.486 Y170.393 E1.53634 F126.000
G1 X132.736 Y170.474 E1.56074
G1 X132.975 Y170.586 E1.58514
G1 X133.198 Y170.728 E1.60952
G1 X133.401 Y170.896 E1.63392
G1 X133.662 Y171.192 E1.67048
G1 X133.804 Y171.415 E1.69488
G1 X133.916 Y171.654 E1.71926
G1 X133.998 Y171.904 E1.74366
G1 X134.047 Y172.164 E1.76806
G1 X134.064 Y172.427 E1.79245
G1 X134.047 Y172.690 E1.81684
G1 X133.961 Y173.076 E1.85340
G1 X133.864 Y173.321 E1.87781
G1 X133.737 Y173.552 E1.90218
G1 X133.582 Y173.766 E1.92659
G1 X133.401 Y173.958 E1.95097
G1 X133.198 Y174.126 E1.97537
G1 X132.996 Y174.255 E1.99756
G1 X132.612 Y174.424 E2.03631
G1 X132.357 Y174.490 E2.06071
G1 X132.095 Y174.523 E2.08509
G1 X131.700 Y174.510 E2.12166
G1 X131.441 Y174.461 E2.14605
G1 X131.190 Y174.380 E2.17044
G1 X130.952 Y174.267 E2.19484
G1 X130.779 Y174.160 E2.21368
G1 F1800.000 E1.21368
G92 E0
G1 X132.148 Y169.937 F6600.000
G1 X130.340 Y174.628 F6600.000
G1 E1.00000 F1800.000
G1 X129.969 Y174.300 E1.04578 F180.000
G1 X129.750 Y174.035 E1.07758
G1 X129.488 Y173.592 E1.12521
G1 X129.361 Y173.272 E1.15698
G1 X129.269 Y172.896 E1.19280
G1 X129.227 Y172.427 E1.23640
G1 X129.276 Y171.914 E1.28403
G1 X129.361 Y171.581 E1.31580
G1 X129.508 Y171.223 E1.35162
G1 X129.750 Y170.818 E1.39522
G1 X129.969 Y170.554 E1.42701
G1 X130.355 Y170.213 E1.47462
G1 X130.645 Y170.029 E1.50641
G1 X131.118 Y169.825 E1.55404
G1 X131.451 Y169.739 E1.58581
G1 X131.920 Y169.692 E1.62941
G1 X132.135 Y169.696 E1.64934 F180.000
G1 X132.476 Y169.739 E1.68113
G1 X132.809 Y169.825 E1.71290
G1 X133.128 Y169.951 E1.74468
G1 X133.429 Y170.117 E1.77647
G1 X133.707 Y170.319 E1.80825
G1 X133.958 Y170.554 E1.84005
G1 X134.177 Y170.819 E1.87180
G1 X134.361 Y171.109 E1.90361
G1 X134.507 Y171.419 E1.93535
G1 X134.614 Y171.746 E1.96714
G1 X134.678 Y172.084 E1.99895
G1 X134.700 Y172.427 E2.03070
G1 X134.678 Y172.770 E2.06248
G1 X134.566 Y173.272 E2.11012
G1 X134.439 Y173.592 E2.14192
G1 X134.274 Y173.893 E2.17365
G1 X134.072 Y174.171 E2.20547
G1 X133.836 Y174.421 E2.23723
G1 X133.572 Y174.640 E2.26901
G1 X133.319 Y174.802 E2.29674
G1 X133.128 Y174.903 E2.31671
G1 X132.809 Y175.029 E2.34847
G1 X132.476 Y175.114 E2.38025
G1 X132.135 Y175.158 E2.41203
G1 X131.620 Y175.141 E2.45967
G1 X131.283 Y175.077 E2.49145
G1 X130.956 Y174.971 E2.52322
G1 X130.645 Y174.824 E2.55501
G1 X130.388 Y174.663 E2.58307
G1 X129.950 Y175.131 F6600.000
G1 X129.506 Y174.735 E2.63807 F180.000
G1 X129.235 Y174.409 E2.67727
G1 X129.116 Y174.233 E2.69691
G1 X128.912 Y173.863 E2.73603
G1 X128.757 Y173.469 E2.77519
G1 X128.641 Y172.996 E2.82023
G1 X128.591 Y172.427 E2.87306
G1 X128.618 Y172.004 E2.91220
G1 X128.651 Y171.795 E2.93183
G1 X128.756 Y171.385 E2.97097
G1 X128.941 Y170.934 E3.01602
G1 X129.235 Y170.445 E3.06886
G1 X129.505 Y170.118 E3.10804
G1 X129.814 Y169.829 E3.14719
G1 X129.981 Y169.699 E3.16676
G1 X130.339 Y169.472 E3.20595
G1 X130.528 Y169.376 E3.22554
G1 X130.921 Y169.220 E3.26470
G1 X131.332 Y169.115 E3.30386
G1 X131.541 Y169.081 E3.32344
G1 X132.111 Y169.059 E3.37626
G1 X132.386 Y169.081 E3.40175 F180.000
G1 X132.802 Y169.161 E3.44092
G1 X133.205 Y169.292 E3.48008
G1 X133.588 Y169.472 E3.51927
G1 X133.945 Y169.699 E3.55840
G1 X134.272 Y169.969 E3.59760
G1 X134.422 Y170.119 E3.61722
G1 X134.691 Y170.445 E3.65634
G1 X134.919 Y170.803 E3.69555
G1 X135.099 Y171.185 E3.73466
G1 X135.229 Y171.588 E3.77383
G1 X135.309 Y172.005 E3.81305
G1 X135.335 Y172.427 E3.85217
G1 X135.309 Y172.849 E3.89133
G1 X135.276 Y173.059 E3.91095
G1 X135.170 Y173.469 E3.95011
G1 X135.014 Y173.863 E3.98931
G1 X134.811 Y174.233 E4.02839
G1 X134.561 Y174.576 E4.06762
G1 X134.272 Y174.885 E4.10676
G1 X133.946 Y175.155 E4.14592
G1 X133.643 Y175.349 E4.17920
G1 X133.399 Y175.478 E4.20472
G1 X133.005 Y175.634 E4.24386
G1 X132.595 Y175.739 E4.28303
G1 X132.175 Y175.792 E4.32218
G1 X131.752 Y175.792 E4.36136
G1 X131.541 Y175.772 E4.38096
G1 X131.125 Y175.693 E4.42013
G1 X130.722 Y175.562 E4.45928
G1 X130.339 Y175.382 E4.49846
G1 X129.998 Y175.166 E4.53574
G1 X131.832 Y149.059 F6600.000
G1 X131.441 Y148.998 E4.57231 F126.000
G1 X131.069 Y148.864 E4.60887
G1 X130.729 Y148.662 E4.64543
G1 X130.432 Y148.401 E4.68198
G1 X130.190 Y148.089 E4.71856
G1 X130.011 Y147.736 E4.75511
G1 X129.929 Y147.486 E4.77949
G1 X129.880 Y147.226 E4.80391
G1 X129.867 Y146.832 E4.84046
G1 X129.929 Y146.441 E4.87702
G1 X130.063 Y146.069 E4.91359
G1 X130.264 Y145.729 E4.95013
G1 X130.526 Y145.432 E4.98670
G1 X130.838 Y145.190 E5.02326
G1 X131.190 Y145.011 E5.05981
G1 X131.570 Y144.900 E5.09638
